shader_type spatial;

void vertex() {
	// Called for every vertex the material is visible on.
}

void fragment() {
	COLOR = texture(TEXTURE,tiled_uvs + waves_uv_offset*amplitude);
}

//void light() {
//	// Called for every pixel for every light affecting the material.
//	// Uncomment to replace the default light processing function with this one.
//}
